X: 4238
T: JOHN O'REILLY
%R: jig
B: James Kerr "Merry Melodies" v.4 p.26 #238
Z: 2016 John Chambers <jc:trillian.mit.edu>
M: 6/8
L: 1/8
K: F
C |\
CFF FEF | BGF EFG | AcA BGA | GFF F2C |\
CFF FEF | BGF EFG | AcA BGc | AFF F2 :|
|: F |\
F_ee e2e | _ecc BGG | Fff f_ef | g_ec cBA |\
Bcd _ede | cBA G2G | c=Bc _edc | BGF F2 :|

%%sep 1 1 500
%%sep 1 1 500

